img/landing-nalog/icons/icon-advantage-06.svg

<svg width="72" height="80" viewBox="0 0 72 80" fill="none" xmlns="http://www.w3.org/2000/svg">
<path d="M35.8591 69.3166C36.4739 69.7528 37.1824 69.8867 37.908 69.7028C38.0899 69.6569 38.3128 69.5771 38.5688 69.441C38.7292 69.8021 38.9886 70.1486 39.3777 70.4688C40.9622 71.7724 43.4388 71.3319 44.8535 69.9817C45.0722 69.773 45.263 69.5478 45.4245 69.3102C46.7695 70.0117 49.1527 70.4147 53.3016 69.2088C53.9233 69.028 54.281 68.3775 54.1002 67.7557C53.9194 67.1338 53.2688 66.776 52.647 66.9571C47.3727 68.4902 46.1194 67.0017 45.971 66.7868C45.811 66.2308 45.2833 65.9343 44.7038 66.0143C44.113 66.0961 43.6983 66.6728 43.7133 67.2693C43.7252 67.7444 43.4181 68.1102 43.2341 68.286C42.7977 68.7027 42.1739 68.9366 41.61 68.8963C41.29 68.8735 41.0263 68.7888 40.8674 68.6582C40.5561 68.4019 40.6739 67.933 41.4153 66.4767C41.6499 66.0161 41.8924 65.5399 42.0735 65.0571C42.2928 64.4719 42.0149 63.8175 41.4413 63.5692C40.8677 63.3213 40.2003 63.5664 39.9241 64.1269C39.4705 65.0472 38.9314 65.9743 38.2356 66.735C37.8356 67.1725 36.923 67.8616 37.0447 66.7178C37.1583 65.6508 37.8605 64.7885 38.4372 63.9288C38.8383 63.331 39.2928 62.6533 39.7438 62.2933C40.2497 61.8894 40.3324 61.1517 39.9286 60.6457C39.5247 60.1397 38.7872 60.0569 38.2799 60.4616C37.5967 61.0066 36.9208 61.5522 36.247 62.0961C33.681 64.1675 31.257 66.1243 28.5642 67.9588C28.0291 68.3233 27.8908 69.0527 28.2553 69.5878C28.62 70.123 29.3492 70.2613 29.8844 69.8967C31.5645 68.7522 33.1724 67.5375 34.7327 66.311C34.7253 66.3636 34.7189 66.4166 34.7131 66.4699C34.5831 67.6888 34.99 68.6997 35.8591 69.3166Z" fill="#007A65"/>
<path d="M7.90785 11.0996H42.7161C43.3636 11.0996 43.8886 10.5748 43.8886 9.92714C43.8886 9.27964 43.3638 8.75464 42.7161 8.75464H7.90785C7.26035 8.75464 6.73535 9.27948 6.73535 9.92714C6.73551 10.5746 7.26035 11.0996 7.90785 11.0996Z" fill="#007A65"/>
<path d="M7.90785 17.3267H39.8421C40.4896 17.3267 41.0146 16.8018 41.0146 16.1542C41.0146 15.5067 40.4896 14.9817 39.8421 14.9817H7.90785C7.26035 14.9817 6.73535 15.5065 6.73535 16.1542C6.73551 16.8017 7.26035 17.3267 7.90785 17.3267Z" fill="#007A65"/>
<path d="M7.90785 23.554H39.8421C40.4896 23.554 41.0146 23.0291 41.0146 22.3815C41.0146 21.7338 40.4896 21.209 39.8421 21.209H7.90785C7.26035 21.209 6.73535 21.734 6.73535 22.3815C6.73535 23.029 7.26035 23.554 7.90785 23.554Z" fill="#007A65"/>
<path d="M7.90785 29.781H42.7161C43.3636 29.781 43.8886 29.256 43.8886 28.6085C43.8886 27.961 43.3638 27.436 42.7161 27.436H7.90785C7.26035 27.436 6.73535 27.961 6.73535 28.6085C6.73535 29.256 7.26035 29.781 7.90785 29.781Z" fill="#007A65"/>
<path d="M7.90785 36.0081H45.4208C46.0683 36.0081 46.5933 35.4831 46.5933 34.8356C46.5933 34.1881 46.0683 33.6631 45.4208 33.6631H7.90785C7.26035 33.6631 6.73535 34.1879 6.73535 34.8356C6.73535 35.4832 7.26035 36.0081 7.90785 36.0081Z" fill="#007A65"/>
<path d="M7.90785 42.2352H50.5399C51.1874 42.2352 51.7124 41.7104 51.7124 41.0627C51.7124 40.4152 51.1874 39.8904 50.5399 39.8904H7.90785C7.26035 39.8904 6.73535 40.4152 6.73535 41.0627C6.73551 41.7104 7.26035 42.2352 7.90785 42.2352Z" fill="#007A65"/>
<path d="M7.90785 48.4624H50.5399C51.1874 48.4624 51.7124 47.9376 51.7124 47.2899C51.7124 46.6424 51.1874 46.1174 50.5399 46.1174H7.90785C7.26035 46.1174 6.73535 46.6423 6.73535 47.2899C6.73551 47.9374 7.26035 48.4624 7.90785 48.4624Z" fill="#007A65"/>
<path d="M7.90785 54.6896H50.5399C51.1874 54.6896 51.7124 54.1647 51.7124 53.5172C51.7124 52.8697 51.1874 52.3447 50.5399 52.3447H7.90785C7.26035 52.3447 6.73535 52.8696 6.73535 53.5172C6.73551 54.1646 7.26035 54.6896 7.90785 54.6896Z" fill="#007A65"/>
<path d="M60.5374 9.44219V2.63641C60.5374 1.18266 59.3546 0 57.901 0H2.98113C1.52738 0 0.344727 1.18266 0.344727 2.63641V77.3636C0.344727 78.8173 1.52738 80 2.98113 80H18.9374C19.5849 80 20.1099 79.4752 20.1099 78.8275C20.1099 78.18 19.585 77.655 18.9374 77.655H2.98113C2.82035 77.655 2.68957 77.5242 2.68957 77.3634V2.63641C2.68957 2.47562 2.82035 2.34484 2.98113 2.34484H57.901C58.0618 2.34484 58.1925 2.47562 58.1925 2.63641V9.44172C55.9204 9.65469 53.7788 10.4852 51.9418 11.8794C51.426 12.2708 51.3252 13.0063 51.7166 13.522C52.1079 14.0377 52.8433 14.1388 53.3593 13.7472C55.0983 12.4273 57.175 11.7298 59.3649 11.7298C64.8483 11.7298 69.3096 16.1909 69.3096 21.6745C69.3096 27.1581 64.8485 31.6192 59.3649 31.6192C53.8813 31.6192 49.4202 27.1581 49.4202 21.6745C49.4202 20.2209 49.7263 18.8205 50.3302 17.5123C50.6016 16.9244 50.3449 16.2278 49.7571 15.9564C49.1689 15.685 48.4725 15.9417 48.2013 16.5295C47.4543 18.1481 47.0755 19.8791 47.0755 21.6744C47.0755 28.0553 51.9643 33.3142 58.1925 33.9066V77.3636C58.1925 77.5244 58.0618 77.6552 57.901 77.6552H24.3825C23.735 77.6552 23.21 78.18 23.21 78.8277C23.21 79.4752 23.7349 80.0002 24.3825 80.0002H57.9008C59.3546 80.0002 60.5372 78.8175 60.5372 77.3637V33.9066C66.7657 33.3141 71.6543 28.0553 71.6543 21.6744C71.6543 15.2934 66.7657 10.0345 60.5374 9.44219Z" fill="#007A65"/>
<path d="M53.4316 24.2276C55.0322 26.1509 56.0197 27.2588 56.6541 27.6065C57.0968 27.849 57.6071 27.9666 58.1255 27.9666C58.9249 27.9666 59.744 27.687 60.3661 27.1538C60.4555 27.0773 60.6414 26.9181 65.6979 20.921C66.281 20.2406 66.5641 19.3737 66.4952 18.4802C66.4263 17.5866 66.0135 16.7735 65.333 16.1904C63.9285 14.987 61.8063 15.1506 60.6025 16.5554L58.1529 19.4143C57.5585 18.7284 56.6966 18.2999 55.7852 18.2382C54.8789 18.1766 54.0147 18.4695 53.3491 19.0618C51.9932 20.2685 51.851 22.372 53.0322 23.7506C53.1264 23.8609 53.2644 24.0266 53.4316 24.2276ZM54.9077 20.8137C55.0993 20.6432 55.3546 20.5593 55.6266 20.5779C55.9202 20.5977 56.1961 20.7348 56.3839 20.954L56.9639 21.631C57.2618 21.9787 57.695 22.1781 58.1527 22.1781C58.6104 22.1781 59.0436 21.9787 59.3413 21.6312L62.383 18.0812C62.7454 17.6584 63.3841 17.6088 63.8072 17.9713C64.23 18.3337 64.2793 18.9726 63.911 19.4026C62.1277 21.5174 59.2219 24.9487 58.8086 25.3988C58.5329 25.6099 58.0468 25.6863 57.7908 25.5554C57.3288 25.2449 55.7533 23.3518 55.2338 22.7276C55.0575 22.5159 54.9121 22.341 54.8125 22.2249C54.4571 21.8098 54.4996 21.1768 54.9077 20.8137Z" fill="#007A65"/>
</svg>

<svg width="72" height="80" fill="none" xmlns="http://www.w3.org/2000/svg"><path d="M35.86 69.317c.614.436 1.322.57 2.048.386a2.94 2.94 0 00.66-.262c.161.361.42.708.81 1.028 1.584 1.303 4.06.863 5.475-.487.22-.209.41-.434.572-.672 1.345.702 3.728 1.105 7.877-.101a1.172 1.172 0 10-.655-2.252c-5.274 1.533-6.528.045-6.676-.17-.16-.556-.688-.853-1.267-.773-.591.082-1.006.659-.99 1.255.011.475-.296.841-.48 1.017-.436.417-1.06.65-1.624.61-.32-.022-.584-.107-.743-.238-.31-.256-.193-.725.548-2.181.235-.46.477-.937.659-1.42a1.173 1.173 0 00-2.15-.93c-.453.92-.993 1.847-1.688 2.608-.4.438-1.313 1.127-1.191-.017.113-1.067.816-1.93 1.392-2.79.401-.597.856-1.275 1.307-1.635a1.173 1.173 0 10-1.464-1.831c-.683.545-1.36 1.09-2.033 1.634-2.566 2.072-4.99 4.028-7.683 5.863a1.172 1.172 0 001.32 1.938c1.68-1.145 3.288-2.36 4.849-3.586a5.106 5.106 0 00-.02.159c-.13 1.219.277 2.23 1.146 2.847zM7.908 11.1h34.808a1.172 1.172 0 100-2.345H7.908a1.172 1.172 0 100 2.345zm0 6.227h31.934a1.173 1.173 0 000-2.345H7.908a1.172 1.172 0 100 2.345zm0 6.227h31.934a1.173 1.173 0 000-2.345H7.908a1.173 1.173 0 000 2.345zm0 6.227h34.808a1.173 1.173 0 000-2.345H7.908a1.173 1.173 0 000 2.345zm0 6.227H45.42a1.173 1.173 0 000-2.345H7.908a1.172 1.172 0 100 2.345zm0 6.227H50.54a1.172 1.172 0 100-2.345H7.908a1.172 1.172 0 100 2.345zm0 6.227H50.54a1.172 1.172 0 100-2.345H7.908a1.173 1.173 0 000 2.345zm0 6.228H50.54a1.172 1.172 0 100-2.345H7.908a1.173 1.173 0 000 2.345z" fill="#007A65"/><path d="M60.537 9.442V2.636A2.64 2.64 0 0057.901 0H2.981A2.64 2.64 0 00.345 2.636v74.728A2.64 2.64 0 002.98 80h15.956a1.172 1.172 0 100-2.345H2.981a.292.292 0 01-.291-.292V2.636c0-.16.13-.291.291-.291h54.92c.16 0 .291.13.291.291v6.806a12.158 12.158 0 00-6.25 2.437 1.172 1.172 0 101.417 1.868 9.854 9.854 0 016.006-2.017c5.483 0 9.945 4.46 9.945 9.944 0 5.484-4.462 9.945-9.945 9.945-5.484 0-9.945-4.46-9.945-9.945a9.86 9.86 0 01.91-4.162 1.173 1.173 0 00-2.129-.983 12.19 12.19 0 00-1.126 5.145c0 6.381 4.89 11.64 11.117 12.233v43.457c0 .16-.13.291-.291.291H24.382a1.172 1.172 0 100 2.345h33.519a2.64 2.64 0 002.636-2.636V33.907c6.229-.593 11.117-5.852 11.117-12.233 0-6.38-4.888-11.64-11.117-12.232z" fill="#007A65"/><path d="M53.432 24.228c1.6 1.923 2.588 3.03 3.222 3.378.443.243.953.36 1.471.36.8 0 1.619-.279 2.241-.812.09-.077.275-.236 5.332-6.233a3.33 3.33 0 00.797-2.44 3.333 3.333 0 00-1.162-2.29 3.359 3.359 0 00-4.73.364l-2.45 2.86a3.46 3.46 0 00-2.368-1.177 3.295 3.295 0 00-2.436.824 3.372 3.372 0 00-.317 4.689c.094.11.232.276.4.477zm1.476-3.414a.97.97 0 01.719-.236c.293.02.57.157.757.376l.58.677a1.564 1.564 0 002.377 0l3.042-3.55a1.011 1.011 0 011.424-.11c.423.363.472 1.002.104 1.432-1.783 2.114-4.69 5.546-5.102 5.996-.276.21-.762.287-1.018.156-.462-.31-2.038-2.203-2.557-2.827-.177-.212-.322-.387-.422-.503a1.015 1.015 0 01.096-1.411z" fill="#007A65"/></svg>
